X:1
T:Title
%%score { 1 | 2 } { 3 | 4 }
L:1/8
Q:1/4=100
M:6/8
K:G
V:1 treble nm="Grand Piano, Soprano"
V:2 treble 
V:3 bass nm="Choir Pad, Marching Up the Narrow Way"
V:4 bass 
V:1
 D2 D E2 F | G2 F G3 | E2 E F2 G | A2 ^G A3 | F2 G A2 B | c2 B c2 d | f2 e d2 c | B2 c d3 | %8
w: By~Charles~Hutchinson~Gabriel * * *||||||||
 D2 D E2 F | G2 F G3 | E2 E F2 G | A2 ^G A3 | F2 G A2 B | c2 d f2 e | d2 c B2 A | G6 | d3 B3 | %17
w: |||||||||
 G3 GFG | F3 c3 | c6 | c3 z3 | F3 EFE | D2 D G2 A | B6 | d3 B3 | G3 AAB | c3 A3 | E3 z3 | F3 e3 | %29
w: ||||||||||||
 d3- d3/2 z/ c | .B3 .A3 | G6- | G3 z3 |] %33
w: ||||
V:2
 B,2 B, C2 D | D2 D D3 | C2 C D2 D | E2 E E3 | D2 D D2 D | F2 F F2 F | F2 F G2 D | D2 D G3 | %8
 B,2 B, C2 D | D2 D D3 | C2 C D2 D | E2 E E3 | D2 D D2 D | F2 F F2 F | F2 G G2 D | D6 | G2 G G2 G | %17
 D2 D D3 | D2 D D2 E | F2 E D2 G | F2 G A2 D | D2 D C3 | B,2 B, D3 | D2 D .D3 | G2 G G2 G | %25
 D2 D =F3 | E2 E E2 E | C2 C EFG | D2 D D2 F | G2 F G2 G | .G3 .D3 | D6- | D3 z3 |] %33
V:3
 G,2 G, G,2 C | B,2 A, B,3 | G,2 G, A,2 G, | C2 D C3 | C2 B,[K:bass] F,2 G, | A,2 ^G, A,2 A, | %6
 A,2 C B,2 A, | G,2 A, B,3 | G,2 G, G,2 C | B,2 A, B,3 | G,2 G, A,2 G, | C2 D C3 | %12
 C2 B,[K:bass] F,2 G, | A,2 A, A,2[K:treble] C | B,2 E D2 C | B,6 | B,2 B, D2 D | B,2 B, B,3 | %18
 A,2 A, A,2 A, | D2 A, A,2 A, | A,2 A, A,2 A, | C2 C F,3 | G,2 G, G,2 F, | G,2 G, .G,3 | %24
 B,2 B, D2 D | B,2 B, B,2 G, | G,2 G, G,2 G, | G,2 G, A,3 | A,2 A,[K:treble] C2 C | B,2 C D2 E | %30
 .D3 .C3 | B,6- | B,3 z3 |] %33
V:4
 G,,2 G,, G,,2 G,, | G,,2 G,, G,,3 | C,2 C, C,2 G,, | A,,2 A,, A,,3 | D,2 D, D,2 D, | %5
 D,2 D, D,2 D, | D,2 D, D,2 D, | z2 G, G,3 | G,,2 G,, G,,2 G,, | G,,2 G,, G,,3 | C,2 C, C,2 B,, | %11
 A,,2 A,, A,,3 | D,2 D, D,2 D, | D,2 D, D,2 D, | D,2 D, D,2 D, | G,,6 | G,2 G, G,2 G, | %17
 G,2 G, G,3 | D,2 E, F,2 G, | A,2 G, F,2 E, | D,2 E, F,2 E, | D,2 D, D,3 | G,,2 G,, B,,2 D, | z6 | %24
 G,2 G, G,2 G, | G,2 G, .G,3 | C,2 C, C,2 C, | C,2 C, ^C,3 | D,2 E, F,2 D, | G,,2 A,, B,,2 C, | %30
 .D,3 .D,3 | G,,6- | G,,3 z3 |] %33

